X:1
L:1/16
M:2/4
K:Bb
V:1 treble
 V:1  z | z | z | z | z | z | z | z | z | z | z | z | z | z | Bd f4 e2 | dgfed c B A | BF F2 B2 B2 | 
  cA B2 ec d2 |{d} c4 | 
